X:1
T:Title
%%score ( 1 2 ) { 3 | 4 }
L:1/8
Q:1/4=140
M:6/4
K:Bb
V:1 treble nm="Grand Piano, Soprano"
V:2 treble 
V:3 bass nm="Choir Pad, Tarragona, Ira D. Sankey"
V:4 bass 
V:1
 [DF]4 [_D=E]2 [=DF]4 [C_E]2 | [B,D]2 [DF]2 [FB]2 [FB]4 [EA]2 | [CE]4 [=B,D]2 [CE]4 C2 | .F6 z6 | %4
w: By~Ira~David~Sankey,~1887 * * *||||
 [DF]4 [_D=E]2 [=DF]4 [C_E]2 | [B,D]2 [DF]2 [DB]2 [Fd]4 [DB]2 | G2 A2 [_DB]2 [=DF]2 F2 [FB]2 | %7
w: |||
 c2- [Ec]2 [EA]2 [DB]6 | [Ec]4 [DB]2 [EA]4 [EF]2 | .d6 z6 | .G6 .A6 | .B6 .c6 | .d6 z6 | %13
w: ||||||
 [FB]4 [^FA]2 [Gc]4 [GB]2 | .G6 z6 | .B6 z6 | z12 |] %17
w: ||||
V:2
 x12 | x12 | x12 | C2- [C=E]2 [C_E]2 [B,D]6 | x12 | x12 | ._D6 z6 | .F6 z6 | x12 | %9
 D2 F2 [Fc]2 [FB]4 [DF]2 | E2 F2 [=EG]2 F2 G2 [^FA]2 | G2 F2 [=EB]2 _E4- [E_d]2 | %12
 D2 F2 [=E_d]2 [F=d]4 [Fc]2 | x12 | E2- [EA]2 [EB]2 F4 [DB]2 | F2 E2 [EA]2 [DB]6- | [DB]6 z6 |] %17
V:3
 F,4 G,2 B,4 F,2 | F,2 B,2 D2 D4 C2 | A,4 F,2 A,4 A,2 | A,2 B,2 F,2 F,6 | B,4 G,2 B,4 F,2 | %5
 F,4 F,2 B,4 B,2 | B,2 A,2 G,2 B,4 D2 | D2 C2 F,2 F,6 | A,4 B,2 C4 A,2 | B,2 F,2 A,2 B,4 B,2 | %10
 B,2 =B,2[K:treble] C2 C2 _D2 =D2 | D2 _D2 C[K:bass]B, A,6 | B,2 F,2 G,2 F,4 A,2 | B,4 C2 B,4 B,2 | %14
 B,2 A,2 G,2 B,4 B,2 | D2 C2 F,2 F,6- | F,6 z6 |] %17
V:4
 B,,4 B,,2 B,,4 A,,2 | B,,4 B,,2 F,4 F,2 | .F,6 F,4 F,,2 | F,,2 G,,2 A,,2 B,,6 | %4
 B,,4 B,,2 B,,4 A,,2 | B,,4 B,,2 B,,4 B,,2 | =E,4 E,2 F,2 D,2 B,,2 | F,4 F,,2 B,,6 | %8
 F,4 F,2 F,4 F,2 | B,,4 E,2 D,4 B,,2 | E,2 D,2 C,2 F,2 E,2 D,2 | E,4 G,2 F,6 | B,,4 B,,2 B,,4 E,2 | %13
 D,4 D,2 E,4 E,2 | E,4 E,2 D,4 G,2 | F,4 F,,2 B,,6- | B,,6 z6 |] %17

